svg/fluentui-system-icons/ic_fluent_call_transfer_24_filled.svg

<svg width="24" height="24" viewBox="0 0 24 24" fill="none" xmlns="http://www.w3.org/2000/svg">
<path d="M14 2.75C14 2.33579 14.3358 2 14.75 2H21.25C21.6642 2 22 2.33579 22 2.75V9.25C22 9.66421 21.6642 10 21.25 10C20.8358 10 20.5 9.66421 20.5 9.25V4.56066L16.5303 8.53033C16.2374 8.82322 15.7626 8.82322 15.4697 8.53033C15.1768 8.23744 15.1768 7.76256 15.4697 7.46967L19.4393 3.5H14.75C14.3358 3.5 14 3.16421 14 2.75ZM14 10.75C14.4142 10.75 14.75 10.4142 14.75 10C14.75 9.58579 14.4142 9.25 14 9.25C13.5858 9.25 13.25 9.58579 13.25 10C13.25 10.4142 13.5858 10.75 14 10.75ZM12.75 12C12.75 12.4142 12.4142 12.75 12 12.75C11.5858 12.75 11.25 12.4142 11.25 12C11.25 11.5858 11.5858 11.25 12 11.25C12.4142 11.25 12.75 11.5858 12.75 12ZM10.2242 5.33967L9.36444 3.31232C8.93242 2.29358 7.85457 1.77263 6.84575 2.09498L5.76916 2.43899C4.70165 2.78009 3.88414 3.69457 3.62014 4.84289C2.99277 7.57189 3.74552 10.8945 5.87839 14.8107C8.00816 18.7211 10.3425 21.0723 12.8813 21.8643C13.9567 22.1997 15.1193 21.9033 15.9332 21.0862L16.7509 20.2653C17.5139 19.4993 17.6245 18.2529 17.0096 17.3495L15.7773 15.539C15.2483 14.7618 14.3091 14.4313 13.4467 14.7189L11.1715 15.4776C10.2636 14.7905 9.50655 13.9257 8.90041 12.8832C8.29427 11.8406 7.93276 10.7816 7.81588 9.70616L9.7102 7.90815C10.3909 7.26203 10.5988 6.22312 10.2242 5.33967Z" fill="#212121"/>
</svg>

<svg xmlns="http://www.w3.org/2000/svg" width="24" height="24"><path d="M14 2.75a.75.75 0 0 1 .75-.75h6.5a.75.75 0 0 1 .75.75v6.5a.75.75 0 0 1-1.5 0V4.56l-3.97 3.97a.75.75 0 1 1-1.06-1.06l3.97-3.97h-4.69a.75.75 0 0 1-.75-.75Zm0 8a.75.75 0 1 0 0-1.5.75.75 0 0 0 0 1.5ZM12.75 12a.75.75 0 1 1-1.5 0 .75.75 0 0 1 1.5 0Zm-2.526-6.66-.86-2.028c-.432-1.018-1.51-1.54-2.518-1.217l-1.077.344C4.702 2.78 3.884 3.695 3.62 4.843c-.627 2.729.126 6.052 2.258 9.968 2.13 3.91 4.464 6.261 7.003 7.053 1.076.336 2.238.04 3.052-.778l.818-.82c.763-.767.873-2.013.259-2.916l-1.233-1.811c-.529-.777-1.468-1.108-2.33-.82l-2.275.759A8.678 8.678 0 0 1 8.9 12.883c-.606-1.042-.967-2.101-1.084-3.177L9.71 7.908c.68-.646.889-1.685.514-2.568Z"/></svg>
